src/assets/Vector.svg

<svg width="37" height="37" viewBox="0 0 37 37" fill="none" xmlns="http://www.w3.org/2000/svg">
<path d="M36.3526 27.6401C35.9346 27.1949 34.4588 25.8784 31.7457 24.1367C29.0127 22.3798 26.9971 21.2843 26.4189 21.0289C26.368 21.0063 26.3118 20.998 26.2565 21.0049C26.2012 21.0118 26.1488 21.0337 26.105 21.0681C25.1737 21.7944 23.6058 23.1285 23.5217 23.2006C22.9788 23.6658 22.9788 23.6658 22.5343 23.5209C21.7528 23.2647 19.3248 21.9754 17.2091 19.8549C15.0935 17.7345 13.7378 15.2464 13.4815 14.4657C13.335 14.0204 13.335 14.0204 13.8018 13.4775C13.8739 13.3934 15.2088 11.8255 15.9351 10.895C15.9695 10.8512 15.9914 10.7988 15.9983 10.7435C16.0052 10.6882 15.9969 10.632 15.9743 10.5811C15.7189 10.0021 14.6234 7.98735 12.8665 5.25428C11.1224 2.54203 9.80752 1.06619 9.36228 0.648186C9.32143 0.60963 9.27093 0.582809 9.21611 0.570548C9.16128 0.558287 9.10417 0.56104 9.05078 0.578518C7.49444 1.11335 5.99282 1.79578 4.56641 2.61651C3.1894 3.41699 1.88574 4.33745 0.670606 5.36719C0.628189 5.40325 0.596387 5.45018 0.578612 5.50294C0.560837 5.5557 0.557759 5.6123 0.569708 5.66668C0.737071 6.44664 1.53705 9.70262 4.01947 14.2126C6.55234 18.8155 8.30766 21.1738 12.0273 24.8806C15.7469 28.5874 18.1797 30.4485 22.7874 32.9813C27.2974 35.4638 30.555 36.2645 31.3333 36.4303C31.3878 36.4421 31.4445 36.439 31.4974 36.4212C31.5502 36.4035 31.5973 36.3717 31.6336 36.3294C32.6632 35.1143 33.5834 33.8106 34.3835 32.4336C35.2041 31.0071 35.8865 29.5055 36.4215 27.9492C36.4386 27.8962 36.4412 27.8396 36.4291 27.7853C36.417 27.7309 36.3906 27.6808 36.3526 27.6401V27.6401Z" fill="white"/>
</svg>

<svg width="37" height="37" fill="none" xmlns="http://www.w3.org/2000/svg"><path d="M36.353 27.64c-.418-.445-1.894-1.762-4.607-3.503-2.733-1.757-4.749-2.853-5.327-3.108a.307.307 0 0 0-.314.04c-.931.725-2.5 2.06-2.583 2.132-.543.465-.543.465-.988.32-.781-.256-3.21-1.546-5.325-3.666s-3.471-4.609-3.727-5.39c-.147-.445-.147-.445.32-.988.072-.084 1.407-1.652 2.133-2.582a.307.307 0 0 0 .04-.314c-.256-.579-1.352-2.594-3.108-5.327-1.745-2.712-3.06-4.188-3.505-4.606a.312.312 0 0 0-.311-.07 25.813 25.813 0 0 0-4.485 2.039c-1.377.8-2.68 1.72-3.895 2.75a.307.307 0 0 0-.101.3c.167.78.967 4.036 3.45 8.546 2.532 4.603 4.288 6.96 8.007 10.668 3.72 3.706 6.153 5.567 10.76 8.1 4.51 2.483 7.768 3.283 8.546 3.45a.31.31 0 0 0 .3-.102 27.04 27.04 0 0 0 2.75-3.895 25.84 25.84 0 0 0 2.038-4.485.312.312 0 0 0-.068-.309Z" fill="#fff"/></svg>
